img/burger-menu__left.svg

<svg width="139" height="233" viewBox="0 0 139 233" fill="none" xmlns="http://www.w3.org/2000/svg">
<g clip-path="url(#clip0_191_1282)">
<path d="M85.6372 230.372C99.7658 220.159 111.008 206.259 118.634 190.633C126.411 174.71 130.553 156.753 129.837 138.998C129.461 129.775 127.648 120.352 122.906 112.334C118.129 104.257 110.662 98.0787 102.732 93.2271C94.6566 88.2712 85.618 84.4021 76.2285 82.8592C67.6709 81.4431 58.3734 82.158 50.9105 86.9158C39.3584 94.2885 34.2444 113.484 46.2702 122.84C49.605 125.428 53.6778 126.859 57.791 127.623C62.2441 128.447 66.949 128.58 71.4085 127.724C79.9796 126.087 86.5116 120.319 90.5942 112.779C99.1432 97.0366 98.1823 77.0144 92.1754 60.5989C85.9236 43.5004 73.5991 29.3165 58.3969 19.4813C43.8571 10.049 26.8721 4.4382 9.54757 3.48287C-7.18764 2.56327 -24.3235 6.04731 -38.8114 14.6352C-42.3147 16.713 -45.6654 19.1055 -48.7816 21.7221C-49.2442 22.1139 -48.6203 22.8389 -48.1566 22.428C-35.5696 11.8353 -19.701 5.96504 -3.37984 4.5883C13.0755 3.20061 29.7732 6.31279 44.7775 13.1204C60.5808 20.2818 74.7782 31.5829 84.0909 46.3476C93.6144 61.4114 97.9765 80.0939 94.7119 97.7412C93.2061 105.895 89.9553 114.191 83.9677 120.107C77.3717 126.616 68.1744 128.196 59.2653 126.911C51.2641 125.758 43.1554 121.659 40.9149 113.297C39.0944 106.507 41.2298 98.9826 45.3434 93.4491C56.2536 78.7276 77.6866 82.4132 92.1638 88.788C100.805 92.5949 109.206 97.8568 115.794 104.688C122.239 111.378 126.085 119.684 127.747 128.774C129.355 137.499 129.207 146.556 128.121 155.327C127.072 163.813 125.02 172.163 122.035 180.17C116.155 195.96 106.705 210.503 94.3326 221.967C91.3604 224.726 88.2286 227.285 84.9362 229.662C84.5139 230.018 85.1389 230.724 85.6372 230.372Z" fill="#EAD1D0"/>
</g>
<defs>
<clipPath id="clip0_191_1282">
<rect x="124.659" y="232.853" width="186" height="222" rx="2" transform="rotate(-176.529 124.659 232.853)" fill="white"/>
</clipPath>
</defs>
</svg>

<svg width="139" height="233" fill="none" xmlns="http://www.w3.org/2000/svg"><g clip-path="url(#clip0_191_1282)"><path d="M85.637 230.372c14.129-10.213 25.371-24.113 32.997-39.739 7.777-15.923 11.919-33.88 11.203-51.635-.376-9.223-2.189-18.646-6.931-26.664-4.777-8.077-12.244-14.255-20.174-19.107-8.075-4.956-17.114-8.825-26.504-10.368-8.557-1.416-17.855-.701-25.317 4.057-11.553 7.373-16.667 26.568-4.64 35.924 3.334 2.588 7.407 4.019 11.52 4.783 4.453.824 9.158.957 13.618.101 8.57-1.637 15.103-7.405 19.185-14.945 8.55-15.742 7.588-35.765 1.581-52.18C85.924 43.5 73.6 29.317 58.397 19.48 43.857 10.05 26.872 4.438 9.547 3.483c-16.735-.92-33.87 2.564-48.358 11.152a75.304 75.304 0 00-9.97 7.087c-.463.392.16 1.117.624.706C-35.57 11.835-19.7 5.965-3.38 4.588c16.455-1.387 33.153 1.725 48.158 8.532 15.803 7.162 30 18.463 39.313 33.228C93.614 61.41 97.977 80.094 94.71 97.74c-1.505 8.154-4.756 16.45-10.743 22.366-6.596 6.509-15.794 8.089-24.703 6.804-8-1.153-16.11-5.252-18.35-13.614-1.82-6.79.315-14.314 4.428-19.848 10.91-14.721 32.344-11.036 46.82-4.661 8.642 3.807 17.043 9.069 23.631 15.9 6.445 6.69 10.291 14.996 11.953 24.086 1.608 8.725 1.46 17.782.374 26.553a109.717 109.717 0 01-6.086 24.843c-5.88 15.79-15.33 30.333-27.702 41.797a98.743 98.743 0 01-9.397 7.695c-.422.356.203 1.062.701.71z" fill="#EAD1D0"/></g><defs><clipPath id="clip0_191_1282"><rect x="124.659" y="232.853" width="186" height="222" rx="2" transform="rotate(-176.529 124.659 232.853)" fill="#fff"/></clipPath></defs></svg>
